app/assets/images/icons/active/swimming-pool.svg

<?xml version="1.0" encoding="UTF-8" standalone="no"?>
<svg width="32px" height="232px" viewBox="0 0 32 232" version="1.1" xmlns="http://www.w3.org/2000/svg" xmlns:xlink="http://www.w3.org/1999/xlink" xmlns:sketch="http://www.bohemiancoding.com/sketch/ns">
    <title>swimming-pool</title>
    <description>Created with Sketch (http://www.bohemiancoding.com/sketch)</description>
    <defs></defs>
    <g id="Hotel-facilities" stroke="none" stroke-width="1" fill="none" fill-rule="evenodd" sketch:type="MSPage">
        <path d="M6.13890001,136.755 C6.28973902,136.664 6.52109344,136.508 6.92876643,136.236 L11.0218032,133.465 C11.2011793,133.346 11.5466822,133.375 11.7005788,133.518 L12.6840898,134.436 C12.7217996,134.462 12.757471,134.514 12.7554326,134.571 C12.7493175,134.631 12.707531,134.675 12.6718596,134.703 L8.18949514,138.072 C7.82870455,138.349 7.6218105,138.74 7.62588723,139.154 C7.62996396,139.567 7.84501147,139.958 8.21701307,140.223 L10.5081353,141.868 C10.7313362,142.028 11.0411677,142.028 11.2643687,141.872 C12.3589706,141.098 13.6726968,140.709 15.1719142,140.709 C17.7820405,140.709 20.0823354,141.897 20.1006807,141.902 C20.3677065,142.049 20.6897681,142.117 21.0220216,142.117 C21.5479198,142.117 22.0554726,141.94 22.4060714,141.625 L24.0000728,140.202 C24.3231536,139.916 24.5076257,139.51 24.5015106,139.095 C24.4994722,138.676 24.3068467,138.28 23.9725549,137.993 L13.3924217,128.96 C12.7890656,128.445 11.7362501,128.384 11.0758199,128.817 L4.14028319,133.428 C3.97517563,133.5 3.81822153,133.603 3.65413315,133.746 C2.86222837,134.475 2.79496233,135.709 3.50125578,136.502 C4.14843665,137.231 5.3429185,137.341 6.13890001,136.755 Z M23.4171004,127 C21.3104503,127 19.5951662,128.717 19.5951662,130.853 C19.5951662,132.989 21.3104503,134.713 23.4171004,134.713 C25.537,134.713 27.2533032,132.989 27.2533032,130.853 C27.2533032,128.717 25.537,127 23.4171004,127 Z M4.16983948,146.836 C4.19226149,146.835 4.20551087,146.826 4.22997124,146.822 C5.14315874,146.547 6.82175227,146.85 7.43835766,147.371 C8.84177192,148.58 9.77534306,149.135 11.606814,148.692 C12.6657445,148.442 13.4005751,147.817 13.9478761,147.355 C14.0926,147.23 14.232228,147.111 14.3657409,147.011 C14.7499727,146.726 15.1953554,146.596 15.7650784,146.596 L15.9740108,146.6 C16.416336,146.61 16.9055436,146.99 17.5068613,147.447 C18.2457686,148.022 19.1650712,148.737 20.510392,148.961 L20.6683653,148.973 C20.8171659,148.986 20.9608707,149 21.0984603,149 C22.5589488,149 23.6301096,148.176 24.4923379,147.507 L24.5453354,147.455 C25.3892185,146.792 25.8233902,146.666 26.3329815,146.666 C26.4012667,146.666 26.4787246,146.666 26.5775853,146.673 C26.7172133,146.68 27.2166127,146.711 27.7985659,146.896 C27.9116951,146.922 28.0768027,146.966 28.2786008,146.966 C29.2315364,146.966 30,146.201 30,145.254 C30,144.545 29.5485022,143.903 28.8850144,143.664 C28.8636115,143.651 28.8411895,143.641 28.8177483,143.64 C28.045208,143.383 27.2950897,143.285 26.7967095,143.252 C24.8266298,143.102 23.4629636,143.942 22.4152441,144.763 L22.314345,144.846 C21.800677,145.254 21.3868889,145.572 21.0148873,145.572 L21.0067339,145.572 C20.5919266,145.504 20.1383904,145.151 19.6135114,144.742 C18.745168,144.068 17.6587195,143.226 16.0993703,143.17 L15.8190951,143.167 C14.4411604,143.167 13.2864267,143.528 12.2978197,144.279 C12.1520766,144.388 12.0124486,144.5 11.8799549,144.608 L11.7158665,144.742 C11.3917665,145.02 11.0635897,145.305 10.8189859,145.366 C10.3471044,145.483 9.6978852,145.201 8.96713137,144.584 C7.44854948,143.298 5.33272668,142.912 3.23422997,143.545 C3.20059695,143.554 3.17511739,143.568 3.14658028,143.578 C2.45455538,143.825 2,144.46 2,145.189 C2,146.287 2.97943435,147.2 4.16983948,146.836 Z M4.16983948,146.836" id="swimming-pool--white" fill="#206FAC" sketch:type="MSShapeGroup"></path>
        <path d="M6.13890001,96.755 C6.28973902,96.664 6.52109344,96.508 6.92876643,96.236 L11.0218032,93.465 C11.2011793,93.346 11.5466822,93.375 11.7005788,93.518 L12.6840898,94.436 C12.7217996,94.462 12.757471,94.514 12.7554326,94.571 C12.7493175,94.631 12.707531,94.675 12.6718596,94.703 L8.18949514,98.072 C7.82870455,98.349 7.6218105,98.74 7.62588723,99.154 C7.62996396,99.567 7.84501147,99.958 8.21701307,100.223 L10.5081353,101.868 C10.7313362,102.028 11.0411677,102.028 11.2643687,101.872 C12.3589706,101.098 13.6726968,100.709 15.1719142,100.709 C17.7820405,100.709 20.0823354,101.897 20.1006807,101.902 C20.3677065,102.049 20.6897681,102.117 21.0220216,102.117 C21.5479198,102.117 22.0554726,101.94 22.4060714,101.625 L24.0000728,100.202 C24.3231536,99.916 24.5076257,99.51 24.5015106,99.095 C24.4994722,98.676 24.3068467,98.28 23.9725549,97.993 L13.3924217,88.96 C12.7890656,88.445 11.7362501,88.384 11.0758199,88.817 L4.14028319,93.428 C3.97517563,93.5 3.81822153,93.603 3.65413315,93.746 C2.86222837,94.475 2.79496233,95.709 3.50125578,96.502 C4.14843665,97.231 5.3429185,97.341 6.13890001,96.755 Z M23.4171004,87 C21.3104503,87 19.5951662,88.717 19.5951662,90.853 C19.5951662,92.989 21.3104503,94.713 23.4171004,94.713 C25.537,94.713 27.2533032,92.989 27.2533032,90.853 C27.2533032,88.717 25.537,87 23.4171004,87 Z M4.16983948,106.836 C4.19226149,106.835 4.20551087,106.826 4.22997124,106.822 C5.14315874,106.547 6.82175227,106.85 7.43835766,107.371 C8.84177192,108.58 9.77534306,109.135 11.606814,108.692 C12.6657445,108.442 13.4005751,107.817 13.9478761,107.355 C14.0926,107.23 14.232228,107.111 14.3657409,107.011 C14.7499727,106.726 15.1953554,106.596 15.7650784,106.596 L15.9740108,106.6 C16.416336,106.61 16.9055436,106.99 17.5068613,107.447 C18.2457686,108.022 19.1650712,108.737 20.510392,108.961 L20.6683653,108.973 C20.8171659,108.986 20.9608707,109 21.0984603,109 C22.5589488,109 23.6301096,108.176 24.4923379,107.507 L24.5453354,107.455 C25.3892185,106.792 25.8233902,106.666 26.3329815,106.666 C26.4012667,106.666 26.4787246,106.666 26.5775853,106.673 C26.7172133,106.68 27.2166127,106.711 27.7985659,106.896 C27.9116951,106.922 28.0768027,106.966 28.2786008,106.966 C29.2315364,106.966 30,106.201 30,105.254 C30,104.545 29.5485022,103.903 28.8850144,103.664 C28.8636115,103.651 28.8411895,103.641 28.8177483,103.64 C28.045208,103.383 27.2950897,103.285 26.7967095,103.252 C24.8266298,103.102 23.4629636,103.942 22.4152441,104.763 L22.314345,104.846 C21.800677,105.254 21.3868889,105.572 21.0148873,105.572 L21.0067339,105.572 C20.5919266,105.504 20.1383904,105.151 19.6135114,104.742 C18.745168,104.068 17.6587195,103.226 16.0993703,103.17 L15.8190951,103.167 C14.4411604,103.167 13.2864267,103.528 12.2978197,104.279 C12.1520766,104.388 12.0124486,104.5 11.8799549,104.608 L11.7158665,104.742 C11.3917665,105.02 11.0635897,105.305 10.8189859,105.366 C10.3471044,105.483 9.6978852,105.201 8.96713137,104.584 C7.44854948,103.298 5.33272668,102.912 3.23422997,103.545 C3.20059695,103.554 3.17511739,103.568 3.14658028,103.578 C2.45455538,103.825 2,104.46 2,105.189 C2,106.287 2.97943435,107.2 4.16983948,106.836 Z M4.16983948,106.836" id="swimming-pool--white" fill="#FFFFFF" sketch:type="MSShapeGroup"></path>
        <path d="M6.13890001,56.755 C6.28973902,56.664 6.52109344,56.508 6.92876643,56.236 L11.0218032,53.465 C11.2011793,53.346 11.5466822,53.375 11.7005788,53.518 L12.6840898,54.436 C12.7217996,54.462 12.757471,54.514 12.7554326,54.571 C12.7493175,54.631 12.707531,54.675 12.6718596,54.703 L8.18949514,58.072 C7.82870455,58.349 7.6218105,58.74 7.62588723,59.154 C7.62996396,59.567 7.84501147,59.958 8.21701307,60.223 L10.5081353,61.868 C10.7313362,62.028 11.0411677,62.028 11.2643687,61.872 C12.3589706,61.098 13.6726968,60.709 15.1719142,60.709 C17.7820405,60.709 20.0823354,61.897 20.1006807,61.902 C20.3677065,62.049 20.6897681,62.117 21.0220216,62.117 C21.5479198,62.117 22.0554726,61.94 22.4060714,61.625 L24.0000728,60.202 C24.3231536,59.916 24.5076257,59.51 24.5015106,59.095 C24.4994722,58.676 24.3068467,58.28 23.9725549,57.993 L13.3924217,48.96 C12.7890656,48.445 11.7362501,48.384 11.0758199,48.817 L4.14028319,53.428 C3.97517563,53.5 3.81822153,53.603 3.65413315,53.746 C2.86222837,54.475 2.79496233,55.709 3.50125578,56.502 C4.14843665,57.231 5.3429185,57.341 6.13890001,56.755 Z M23.4171004,47 C21.3104503,47 19.5951662,48.717 19.5951662,50.853 C19.5951662,52.989 21.3104503,54.713 23.4171004,54.713 C25.537,54.713 27.2533032,52.989 27.2533032,50.853 C27.2533032,48.717 25.537,47 23.4171004,47 Z M4.16983948,66.836 C4.19226149,66.835 4.20551087,66.826 4.22997124,66.822 C5.14315874,66.547 6.82175227,66.85 7.43835766,67.371 C8.84177192,68.58 9.77534306,69.135 11.606814,68.692 C12.6657445,68.442 13.4005751,67.817 13.9478761,67.355 C14.0926,67.23 14.232228,67.111 14.3657409,67.011 C14.7499727,66.726 15.1953554,66.596 15.7650784,66.596 L15.9740108,66.6 C16.416336,66.61 16.9055436,66.99 17.5068613,67.447 C18.2457686,68.022 19.1650712,68.737 20.510392,68.961 L20.6683653,68.973 C20.8171659,68.986 20.9608707,69 21.0984603,69 C22.5589488,69 23.6301096,68.176 24.4923379,67.507 L24.5453354,67.455 C25.3892185,66.792 25.8233902,66.666 26.3329815,66.666 C26.4012667,66.666 26.4787246,66.666 26.5775853,66.673 C26.7172133,66.68 27.2166127,66.711 27.7985659,66.896 C27.9116951,66.922 28.0768027,66.966 28.2786008,66.966 C29.2315364,66.966 30,66.201 30,65.254 C30,64.545 29.5485022,63.903 28.8850144,63.664 C28.8636115,63.651 28.8411895,63.641 28.8177483,63.64 C28.045208,63.383 27.2950897,63.285 26.7967095,63.252 C24.8266298,63.102 23.4629636,63.942 22.4152441,64.763 L22.314345,64.846 C21.800677,65.254 21.3868889,65.572 21.0148873,65.572 L21.0067339,65.572 C20.5919266,65.504 20.1383904,65.151 19.6135114,64.742 C18.745168,64.068 17.6587195,63.226 16.0993703,63.17 L15.8190951,63.167 C14.4411604,63.167 13.2864267,63.528 12.2978197,64.279 C12.1520766,64.388 12.0124486,64.5 11.8799549,64.608 L11.7158665,64.742 C11.3917665,65.02 11.0635897,65.305 10.8189859,65.366 C10.3471044,65.483 9.6978852,65.201 8.96713137,64.584 C7.44854948,63.298 5.33272668,62.912 3.23422997,63.545 C3.20059695,63.554 3.17511739,63.568 3.14658028,63.578 C2.45455538,63.825 2,64.46 2,65.189 C2,66.287 2.97943435,67.2 4.16983948,66.836 Z M4.16983948,66.836" id="swimming-pool--light-grey" fill="#67737B" sketch:type="MSShapeGroup"></path>
        <path d="M6.13890001,16.755 C6.28973902,16.664 6.52109344,16.508 6.92876643,16.236 L11.0218032,13.465 C11.2011793,13.346 11.5466822,13.375 11.7005788,13.518 L12.6840898,14.436 C12.7217996,14.462 12.757471,14.514 12.7554326,14.571 C12.7493175,14.631 12.707531,14.675 12.6718596,14.703 L8.18949514,18.072 C7.82870455,18.349 7.6218105,18.74 7.62588723,19.154 C7.62996396,19.567 7.84501147,19.958 8.21701307,20.223 L10.5081353,21.868 C10.7313362,22.028 11.0411677,22.028 11.2643687,21.872 C12.3589706,21.098 13.6726968,20.709 15.1719142,20.709 C17.7820405,20.709 20.0823354,21.897 20.1006807,21.902 C20.3677065,22.049 20.6897681,22.117 21.0220216,22.117 C21.5479198,22.117 22.0554726,21.94 22.4060714,21.625 L24.0000728,20.202 C24.3231536,19.916 24.5076257,19.51 24.5015106,19.095 C24.4994722,18.676 24.3068467,18.28 23.9725549,17.993 L13.3924217,8.96 C12.7890656,8.445 11.7362501,8.384 11.0758199,8.817 L4.14028319,13.428 C3.97517563,13.5 3.81822153,13.603 3.65413315,13.746 C2.86222837,14.475 2.79496233,15.709 3.50125578,16.502 C4.14843665,17.231 5.3429185,17.341 6.13890001,16.755 Z M23.4171004,7 C21.3104503,7 19.5951662,8.717 19.5951662,10.853 C19.5951662,12.989 21.3104503,14.713 23.4171004,14.713 C25.537,14.713 27.2533032,12.989 27.2533032,10.853 C27.2533032,8.717 25.537,7 23.4171004,7 Z M4.16983948,26.836 C4.19226149,26.835 4.20551087,26.826 4.22997124,26.822 C5.14315874,26.547 6.82175227,26.85 7.43835766,27.371 C8.84177192,28.58 9.77534306,29.135 11.606814,28.692 C12.6657445,28.442 13.4005751,27.817 13.9478761,27.355 C14.0926,27.23 14.232228,27.111 14.3657409,27.011 C14.7499727,26.726 15.1953554,26.596 15.7650784,26.596 L15.9740108,26.6 C16.416336,26.61 16.9055436,26.99 17.5068613,27.447 C18.2457686,28.022 19.1650712,28.737 20.510392,28.961 L20.6683653,28.973 C20.8171659,28.986 20.9608707,29 21.0984603,29 C22.5589488,29 23.6301096,28.176 24.4923379,27.507 L24.5453354,27.455 C25.3892185,26.792 25.8233902,26.666 26.3329815,26.666 C26.4012667,26.666 26.4787246,26.666 26.5775853,26.673 C26.7172133,26.68 27.2166127,26.711 27.7985659,26.896 C27.9116951,26.922 28.0768027,26.966 28.2786008,26.966 C29.2315364,26.966 30,26.201 30,25.254 C30,24.545 29.5485022,23.903 28.8850144,23.664 C28.8636115,23.651 28.8411895,23.641 28.8177483,23.64 C28.045208,23.383 27.2950897,23.285 26.7967095,23.252 C24.8266298,23.102 23.4629636,23.942 22.4152441,24.763 L22.314345,24.846 C21.800677,25.254 21.3868889,25.572 21.0148873,25.572 L21.0067339,25.572 C20.5919266,25.504 20.1383904,25.151 19.6135114,24.742 C18.745168,24.068 17.6587195,23.226 16.0993703,23.17 L15.8190951,23.167 C14.4411604,23.167 13.2864267,23.528 12.2978197,24.279 C12.1520766,24.388 12.0124486,24.5 11.8799549,24.608 L11.7158665,24.742 C11.3917665,25.02 11.0635897,25.305 10.8189859,25.366 C10.3471044,25.483 9.6978852,25.201 8.96713137,24.584 C7.44854948,23.298 5.33272668,22.912 3.23422997,23.545 C3.20059695,23.554 3.17511739,23.568 3.14658028,23.578 C2.45455538,23.825 2,24.46 2,25.189 C2,26.287 2.97943435,27.2 4.16983948,26.836 Z M4.16983948,26.836" id="swimming-pool--dark-grey" fill="#3A434E" sketch:type="MSShapeGroup"></path>
    </g>
</svg>

<svg width="32" height="232" viewBox="0 0 32 232" xmlns="http://www.w3.org/2000/svg" xmlns:sketch="http://www.bohemiancoding.com/sketch/ns"><title>swimming-pool</title><g sketch:type="MSPage" fill="none"><path d="M6.139 136.755c.151-.091.382-.247.79-.519l4.093-2.771c.179-.119.525-.09.679.053l.984.918c.038.026.073.078.071.135l-.084.132-4.482 3.369c-.361.277-.568.668-.564 1.082.004.413.219.804.591 1.069l2.291 1.645c.223.16.533.16.756.004 1.095-.774 2.408-1.163 3.908-1.163 2.61 0 4.91 1.188 4.929 1.193.267.147.589.215.921.215.526 0 1.033-.177 1.384-.492l1.594-1.423c.323-.286.508-.692.501-1.107-.002-.419-.195-.815-.529-1.102l-10.58-9.033c-.603-.515-1.656-.576-2.317-.143l-6.936 4.611c-.165.072-.322.175-.486.318-.792.729-.859 1.963-.153 2.756.647.729 1.842.839 2.638.253zm17.278-9.755c-2.107 0-3.822 1.717-3.822 3.853s1.715 3.86 3.822 3.86c2.12 0 3.836-1.724 3.836-3.86s-1.716-3.853-3.836-3.853zm-19.247 19.836l.06-.014c.913-.275 2.592.028 3.208.549 1.403 1.209 2.337 1.764 4.168 1.321 1.059-.25 1.794-.875 2.341-1.337l.418-.344c.384-.285.83-.415 1.399-.415l.209.004c.442.01.932.39 1.533.847.739.575 1.658 1.29 3.004 1.514l.158.012.43.027c1.46 0 2.532-.824 3.394-1.493l.053-.052c.844-.663 1.278-.789 1.788-.789l.245.007c.14.007.639.038 1.221.223.113.026.278.07.48.07.953 0 1.721-.765 1.721-1.712 0-.709-.451-1.351-1.115-1.59l-.067-.024c-.773-.257-1.523-.355-2.021-.388-1.97-.15-3.334.69-4.381 1.511l-.101.083c-.514.408-.927.726-1.299.726h-.008c-.415-.068-.868-.421-1.393-.83-.868-.674-1.955-1.516-3.514-1.572l-.28-.003c-1.378 0-2.533.361-3.521 1.112l-.418.329-.164.134c-.324.278-.652.563-.897.624-.472.117-1.121-.165-1.852-.782-1.519-1.286-3.634-1.672-5.733-1.039l-.088.033c-.692.247-1.147.882-1.147 1.611 0 1.098.979 2.011 2.17 1.647zm0 0" id="swimming-pool--white" fill="#206FAC" sketch:type="MSShapeGroup"/><path d="M6.139 96.755c.151-.091.382-.247.79-.519l4.093-2.771c.179-.119.525-.09.679.053l.984.918c.038.026.073.078.071.135l-.084.132-4.482 3.369c-.361.277-.568.668-.564 1.082.004.413.219.804.591 1.069l2.291 1.645c.223.16.533.16.756.004 1.095-.774 2.408-1.163 3.908-1.163 2.61 0 4.91 1.188 4.929 1.193.267.147.589.215.921.215.526 0 1.033-.177 1.384-.492l1.594-1.423c.323-.286.508-.692.501-1.107-.002-.419-.195-.815-.529-1.102l-10.58-9.033c-.603-.515-1.656-.576-2.317-.143l-6.936 4.611c-.165.072-.322.175-.486.318-.792.729-.859 1.963-.153 2.756.647.729 1.842.839 2.638.253zm17.278-9.755c-2.107 0-3.822 1.717-3.822 3.853s1.715 3.86 3.822 3.86c2.12 0 3.836-1.724 3.836-3.86s-1.716-3.853-3.836-3.853zm-19.247 19.836l.06-.014c.913-.275 2.592.028 3.208.549 1.403 1.209 2.337 1.764 4.168 1.321 1.059-.25 1.794-.875 2.341-1.337l.418-.344c.384-.285.83-.415 1.399-.415l.209.004c.442.01.932.39 1.533.847.739.575 1.658 1.29 3.004 1.514l.158.012.43.027c1.46 0 2.532-.824 3.394-1.493l.053-.052c.844-.663 1.278-.789 1.788-.789l.245.007c.14.007.639.038 1.221.223.113.026.278.07.48.07.953 0 1.721-.765 1.721-1.712 0-.709-.451-1.351-1.115-1.59l-.067-.024c-.773-.257-1.523-.355-2.021-.388-1.97-.15-3.334.69-4.381 1.511l-.101.083c-.514.408-.927.726-1.299.726h-.008c-.415-.068-.868-.421-1.393-.83-.868-.674-1.955-1.516-3.514-1.572l-.28-.003c-1.378 0-2.533.361-3.521 1.112l-.418.329-.164.134c-.324.278-.652.563-.897.624-.472.117-1.121-.165-1.852-.782-1.519-1.286-3.634-1.672-5.733-1.039l-.088.033c-.692.247-1.147.882-1.147 1.611 0 1.098.979 2.011 2.17 1.647zm0 0" fill="#fff" sketch:type="MSShapeGroup"/><path d="M6.139 56.755c.151-.091.382-.247.79-.519l4.093-2.771c.179-.119.525-.09.679.053l.984.918c.038.026.073.078.071.135l-.084.132-4.482 3.369c-.361.277-.568.668-.564 1.082.004.413.219.804.591 1.069l2.291 1.645c.223.16.533.16.756.004 1.095-.774 2.408-1.163 3.908-1.163 2.61 0 4.91 1.188 4.929 1.193.267.147.589.215.921.215.526 0 1.033-.177 1.384-.492l1.594-1.423c.323-.286.508-.692.501-1.107-.002-.419-.195-.815-.529-1.102l-10.58-9.033c-.603-.515-1.656-.576-2.317-.143l-6.936 4.611c-.165.072-.322.175-.486.318-.792.729-.859 1.963-.153 2.756.647.729 1.842.839 2.638.253zm17.278-9.755c-2.107 0-3.822 1.717-3.822 3.853s1.715 3.86 3.822 3.86c2.12 0 3.836-1.724 3.836-3.86s-1.716-3.853-3.836-3.853zm-19.247 19.836l.06-.014c.913-.275 2.592.028 3.208.549 1.403 1.209 2.337 1.764 4.168 1.321 1.059-.25 1.794-.875 2.341-1.337l.418-.344c.384-.285.83-.415 1.399-.415l.209.004c.442.01.932.39 1.533.847.739.575 1.658 1.29 3.004 1.514l.158.012.43.027c1.46 0 2.532-.824 3.394-1.493l.053-.052c.844-.663 1.278-.789 1.788-.789l.245.007c.14.007.639.038 1.221.223.113.026.278.07.48.07.953 0 1.721-.765 1.721-1.712 0-.709-.451-1.351-1.115-1.59l-.067-.024c-.773-.257-1.523-.355-2.021-.388-1.97-.15-3.334.69-4.381 1.511l-.101.083c-.514.408-.927.726-1.299.726h-.008c-.415-.068-.868-.421-1.393-.83-.868-.674-1.955-1.516-3.514-1.572l-.28-.003c-1.378 0-2.533.361-3.521 1.112l-.418.329-.164.134c-.324.278-.652.563-.897.624-.472.117-1.121-.165-1.852-.782-1.519-1.286-3.634-1.672-5.733-1.039l-.088.033c-.692.247-1.147.882-1.147 1.611 0 1.098.979 2.011 2.17 1.647zm0 0" fill="#67737B" sketch:type="MSShapeGroup"/><path d="M6.139 16.755c.151-.091.382-.247.79-.519l4.093-2.771c.179-.119.525-.09.679.053l.984.918c.038.026.073.078.071.135l-.084.132-4.482 3.369c-.361.277-.568.668-.564 1.082.004.413.219.804.591 1.069l2.291 1.645c.223.16.533.16.756.004 1.095-.774 2.408-1.163 3.908-1.163 2.61 0 4.91 1.188 4.929 1.193.267.147.589.215.921.215.526 0 1.033-.177 1.384-.492l1.594-1.423c.323-.286.508-.692.501-1.107-.002-.419-.195-.815-.529-1.102l-10.58-9.033c-.603-.515-1.656-.576-2.317-.143l-6.936 4.611c-.165.072-.322.175-.486.318-.792.729-.859 1.963-.153 2.756.647.729 1.842.839 2.638.253zm17.278-9.755c-2.107 0-3.822 1.717-3.822 3.853s1.715 3.86 3.822 3.86c2.12 0 3.836-1.724 3.836-3.86s-1.716-3.853-3.836-3.853zm-19.247 19.836l.06-.014c.913-.275 2.592.028 3.208.549 1.403 1.209 2.337 1.764 4.168 1.321 1.059-.25 1.794-.875 2.341-1.337l.418-.344c.384-.285.83-.415 1.399-.415l.209.004c.442.01.932.39 1.533.847.739.575 1.658 1.29 3.004 1.514l.158.012.43.027c1.46 0 2.532-.824 3.394-1.493l.053-.052c.844-.663 1.278-.789 1.788-.789l.245.007c.14.007.639.038 1.221.223.113.026.278.07.48.07.953 0 1.721-.765 1.721-1.712 0-.709-.451-1.351-1.115-1.59l-.067-.024c-.773-.257-1.523-.355-2.021-.388-1.97-.15-3.334.69-4.381 1.511l-.101.083c-.514.408-.927.726-1.299.726h-.008c-.415-.068-.868-.421-1.393-.83-.868-.674-1.955-1.516-3.514-1.572l-.28-.003c-1.378 0-2.533.361-3.521 1.112l-.418.329-.164.134c-.324.278-.652.563-.897.624-.472.117-1.121-.165-1.852-.782-1.519-1.286-3.634-1.672-5.733-1.039l-.088.033c-.692.247-1.147.882-1.147 1.611 0 1.098.979 2.011 2.17 1.647zm0 0" fill="#3A434E" sketch:type="MSShapeGroup"/></g></svg>
